X: 20063
Q: "With spirit."
M: C
L: 1/8
K: Bb
|: f |\
b/a/g/f/ ec dBAc | fBAB cdec | b/a/g/f/ =eb afef | _edcB Accd |\
eg f/e/d/c/ df e/d/c/B/ | AcBd ec-ce | dBAc BGEG | FBAc dBB :|



